X: 1
T: Katie's Lilt
M: 6/8
L: 1/8
R: jig
K: Emin
E|:ABA A2 a |e2 d efg | dBG GBc | dBG GBc|
ABA A2 a | e2 d efg | dBG GAB | A3 A3:|
|: a^ga A3 | a^ga A2 A |=gfg G3| gfg GFG |
ccc BBB | AAA a2 a | gfe dBG | A3 A3 :|
